!!!!SEGMENT: pl-wn--sd-xvi-qu-273--091_gomolka-mikolaj--kto-sie-w-opieke-poda-panu-swemu.krn
!!!cenid: 15xx:296
!!!COM: Gomółka, Mikołaj
!!!COM-rismid: pe30013343
!!!CDT: ~1535->1591/04/30
!!!CNT: Polish
!!!GTL: Melodiae na psalterz polski
!!!OTL: XCI. Kto się w opiekę poda Panu swemu
!!!PDT: 1580
!!!AGN: Sacred
!!!SMS-siglum: PL-Wn
!!!SMS-shelfmark: SD XVI.Qu.273
!!!SMS-shelfwork: 091 G
!!!NIFC-rismid:
!!!ONB-nifc: Melodiae na psalterz polski
**kern	**text	**text	**kern	**text	**text	**kern	**text	**text	**kern	**text	**text
*part4	*part4	*part4	*part3	*part3	*part3	*part2	*part2	*part2	*part1	*part1	*part1
*staff4	*staff4	*staff4	*staff3	*staff3	*staff3	*staff2	*staff2	*staff2	*staff1	*staff1	*staff1
*clefF4	*	*	*clefC4	*	*	*clefC3	*	*	*clefC1	*	*
*k[b-]	*	*	*k[b-]	*	*	*k[b-]	*	*	*k[b-]	*	*
*c:	*	*	*c:	*	*	*c:	*	*	*c:	*	*
*M4/2	*	*	*M4/2	*	*	*M4/2	*	*	*M4/2	*	*
*met(C|)	*	*	*met(C|)	*	*	*met(C|)	*	*	*met(C|)	*	*
*	*verse[1]	*verse[2]	*	*verse[1]	*verse[2]	*	*verse[1]	*verse[2]	*	*verse[1]	*verse[2]
*>[A,A,B,B]	*>[A,A,B,B]	*>[A,A,B,B]	*>[A,A,B,B]	*>[A,A,B,B]	*>[A,A,B,B]	*>[A,A,B,B]	*>[A,A,B,B]	*>[A,A,B,B]	*>[A,A,B,B]	*>[A,A,B,B]	*>[A,A,B,B]
*>A	*>A	*>A	*>A	*>A	*>A	*>A	*>A	*>A	*>A	*>A	*>A
=1	=1	=1	=1	=1	=1	=1	=1	=1	=1	=1	=1
1C	Kto	A	1G	Kto	A	2c	Kto	A	1g	Kto	A
.	.	.	.	.	.	2.G	ʃye	cá	.	.	.
2GG	ʃye	cá-	2G	ʃye	cá-	.	.	.	2g/	ʃye	cá-
.	.	.	.	.	.	4A	.	.	.	.	.
2.GG	w_o	-łym	2D	w_o-	-łym	4B-	w_o	łym	2g/	w_o-	-łym
.	.	.	.	.	.	4c/	.	.	.	.	.
=2-	=2	=2	=2	=2	=2	=2	=2	=2	=2	=2	=2
.	.	.	2B-	-pie-	prá-	2d	pie-	prá-	2.d	-pie-	prá-
4AA	pie-	prá-	.	.	.	.	.	.	.	.	.
4BB-	-ťe	-wie	2B-	-ťe	-wie	2d	-ťe	-wie	.	.	.
4C	.	.	.	.	.	.	.	.	4e	-ťe	-wie
2D/	po-	ʃer-	2A/	po-	ʃer-	2.d	po-	ʃer	4f	po	ʃer
.	.	.	.	.	.	.	.	.	4e	.	.
2G	-da	-cem	2B-	-da	-cem	.	.	.	4f	-da	cem
.	.	.	.	.	.	4e	-da	cem	4g/	.	.
=3-	=3	=3	=3	=3	=3	=3	=3	=3	=3	=3	=3
2F	pá-	u-	2c	pá-	u-	2f	pá-	u-	2a	pá-	u-
2BB-	-nu	-fa	2d	-nu	-fa	2f	-nu	-fa	2b-	-nu	-fa
1C	ʃwe	ie	2.c	ʃwe	ie	1e	ʃwe	ie	4a	.	.
.	.	.	.	.	.	.	.	.	4g/	.	.
.	.	.	.	.	.	.	.	.	4g/	ʃwe	ie
.	.	.	4B-	.	.	.	.	.	8fL	.	.
.	.	.	.	.	.	.	.	.	8eJ	.	.
=4-	=4	=4	=4	=4	=4	=4	=4	=4	=4	=4	=4
1D	.	.	4A/	.	.	2.d	.	.	4f	.	.
.	.	.	4G	.	.	.	.	.	2g/	.	.
.	.	.	2A/	.	.	.	.	.	.	.	.
.	.	.	.	.	.	4c/	.	.	4f	.	.
1GG	mu/	mu:	1G	mu/	mu/	1Bn	mu/	mu/	1g	mu/	mu/
=5:!:	=5	=5	=5	=5	=5	=5	=5	=5	=5	=5	=5
=-	=-	=-	=-	=-	=-	=-	=-	=-	=-	=-	=-
*>B	*	*	*>B	*	*	*>B	*	*	*>B	*	*
2G	Smie	.	2d	Smie	.	1g	Smie-	.	1b-	Smie-	.
4E-X	.	.	2.e-X	le	.	.	.	.	.	.	.
4F	.	.	.	.	.	.	.	.	.	.	.
4G	le	.	.	.	.	2g	-le	.	2b-	-le	.
4A	.	.	4d	.	.	.	.	.	.	.	.
2B-	rӡéc	.	4c	rӡéc	.	2f	rӡéc	.	2b-	rӡéc	.
.	.	.	4B-	.	.	.	.	.	.	.	.
=6-	=6	=6	=6	=6	=6	=6	=6	=6	=6	=6	=6
2.F	mo	.	4A	mo	.	1f	mo-	.	1cc	mo-	.
.	.	.	4B-	.	.	.	.	.	.	.	.
.	.	.	2A/	.	.	.	.	.	.	.	.
4E	.	.	.	.	.	.	.	.	.	.	.
!	!'ż'	!	!	!'ż'	!	!	!'ż'	!	!	!'ż'	!
2D/	ӡe/	.	1B-	ӡe/_mam	.	2f	-ӡe/	.	2dd	-ӡe/	.
2E	mam	.	.	.	.	4g	mam	.	2b-	mam	.
.	.	.	.	.	.	4f	.	.	.	.	.
=7-	=7	=7	=7	=7	=7	=7	=7	=7	=7	=7	=7
2C	o	.	2c	o	.	4e	o	.	2.ee	o	.
.	.	.	.	.	.	4d	.	.	.	.	.
2E	.	.	2G	.	.	4c/	.	.	.	.	.
.	.	.	.	.	.	4B-	.	.	4dd	.	.
2F	broń-	.	2A/	broń-	.	2f	broń-	.	2cc	broń-	.
2G	-cę	.	2B-	-cę	.	4d	-cę	.	1b-	-cę	.
.	.	.	.	.	.	4e	.	.	.	.	.
=8-	=8	=8	=8	=8	=8	=8	=8	=8	=8	=8	=8
1F	bo-	.	1c	bo-	.	1f	bo-	.	.	.	.
.	.	.	.	.	.	.	.	.	2a	bo-	.
2BB-	-gá/	.	2d	-gá/	.	2f	-gá/	.	2b-	-gá/	.
2D/	Nie	.	2d	Nie	.	2f	Nie	.	2a	Nie	.
=9-	=9	=9	=9	=9	=9	=9	=9	=9	=9	=9	=9
2F	bę-	.	2A/	bę-	.	4c	bę	.	2f	bę-	.
.	.	.	.	.	.	4d	.	.	.	.	.
!	!'ź'	!	!	!'ź'	!	!	!'ź'	!	!	!'ź'	!
2C	-dӡie	.	2c	-dӡie	.	2e-X	dӡie	.	2.g/	-dӡie	.
2G	u	.	2.B-	u	.	2d	u	.	.	.	.
.	.	.	.	.	.	.	.	.	4a	u	.
4GG	mnie	.	.	.	.	2g	mnie	.	2b-	mnie	.
4AA	.	.	4c	mnie	.	.	.	.	.	.	.
=10-	=10	=10	=10	=10	=10	=10	=10	=10	=10	=10	=10
4BB-	ʃtrá	.	4d	ʃtrá	.	2.d	ʃtrá-	.	2.f	ʃtrás-	.
4C	.	.	4c	.	.	.	.	.	.	.	.
2D/	ʃᴣna	.	4A	.	.	.	.	.	.	.	.
.	.	.	4B-	ʃᴣna	.	4e	-ʃᴣna	.	4g/	ʃᴣna	.
!	!'ż'	!	!	!'ż'	!	!	!'ż'	!	!	!'ż'	!
2AA	ӡad	.	2c	ӡad	.	4f	ӡad-	.	2a	ӡad-	.
.	.	.	.	.	.	4e	.	.	.	.	.
1BB-	.	.	1F	.	.	4d	.	.	1d	.	.
.	.	.	.	.	.	4c	.	.	.	.	.
=11-	=11	=11	=11	=11	=11	=11	=11	=11	=11	=11	=11
.	.	.	.	.	.	2B-	.	.	.	.	.
2GG	na	.	2G	na	.	2.d	na	.	2b-	na	.
1D	trwo-	.	2A/	trwo	.	.	.	.	1a	-trwo-	.
.	.	.	.	.	.	4c/	.	.	.	.	.
.	.	.	2F	.	.	2A	trwo-	.	.	.	.
=12	=12	=12	=12	=12	=12	=12	=12	=12	=12	=12	=12
!'ogonek po lewej stronie'	!	!	!	!	!	!	!	!	!	!	!
!!LO:N:vis=00
0GG/	-gá.	.	0G/	gá.	.	0Bn/	-gá.	.	0g	-gá.	.
=	=	=	=	=	=	=	=	=	=	=	=
*-	*-	*-	*-	*-	*-	*-	*-	*-	*-	*-	*-
!!!RDF**kern: l = terminal long
!!!system-decoration: s1,s2,s3,s4
!!!ENC:Anna Matuszewska
!!!END:2020-02-16
!!!URL-scan: https://polona.pl/item/melodiae-na-psalterz-polski,Nzk3MTM4ODQ/211 Scan on Polona
!!!IIIF: https://polona.pl/iiif/item/Nzk3MTM4ODQ/manifest.json
